src/images/space-signal-svgrepo-com.svg

<svg version="1.1" xmlns="http://www.w3.org/2000/svg" xmlns:xlink="http://www.w3.org/1999/xlink" width="800px" height="800px" viewBox="0,0,256,256"><g fill="#ffffff" fill-rule="nonzero" stroke="none" stroke-width="1" stroke-linecap="butt" stroke-linejoin="miter" stroke-miterlimit="10" stroke-dasharray="" stroke-dashoffset="0" font-family="none" font-weight="none" font-size="none" text-anchor="none" style="mix-blend-mode: normal"><g transform="translate(0,-0.20211) scale(10.66667,10.66667)"><path d="M19.828,2.172c1.56153,1.562 1.56153,4.094 0,5.656c-0.39238,0.37897 -1.01608,0.37355 -1.40182,-0.01218c-0.38573,-0.38573 -0.39115,-1.00944 -0.01218,-1.40182c0.78076,-0.781 0.78076,-2.047 0,-2.828c-0.79117,-0.75581 -2.03683,-0.75581 -2.828,0c-0.39238,0.37897 -1.01608,0.37355 -1.40182,-0.01218c-0.38573,-0.38573 -0.39115,-1.00944 -0.01218,-1.40182c1.58213,-1.51214 4.07387,-1.51214 5.656,0zM7.828,12.239c-1.36223,-2.34559 -0.98136,-5.31339 0.929,-7.239l0.707,-0.707c0.3905,-0.39038 1.0235,-0.39038 1.414,0l7.072,7.071c0.39038,0.3905 0.39038,1.0235 0,1.414l-0.707,0.707c-1.12461,1.12594 -2.65162,1.75719 -4.243,1.754c-0.33551,-0.00582 -0.66998,-0.03927 -1,-0.1v5.861h8c0.55228,0 1,0.44772 1,1c0,0.55228 -0.44772,1 -1,1h-16c-0.55228,0 -1,-0.44772 -1,-1c0,-0.55228 0.44772,-1 1,-1h2v-6c0.00041,-1.20396 0.72054,-2.29105 1.829,-2.761zM10.17,12.071c1.56382,1.559 4.09418,1.559 5.658,0l-5.657,-5.657c-1.55889,1.56348 -1.55889,4.09352 0,5.657zM8,21h2v-6c0,-0.55228 -0.44772,-1 -1,-1c-0.55228,0 -1,0.44772 -1,1z"></path></g></g></svg>

<?xml version="1.0" encoding="utf-8"?><!-- Uploaded to: SVG Repo, www.svgrepo.com, Generator: SVG Repo Mixer Tools -->
<svg fill="#cdf3f4" width="800px" height="800px" viewBox="0 0 24 24" xmlns="http://www.w3.org/2000/svg"><path d="M19.828,2.172a4,4,0,0,1,0,5.656,1,1,0,0,1-1.414-1.414,2,2,0,0,0,0-2.828,2.047,2.047,0,0,0-2.828,0,1,1,0,0,1-1.414-1.414A4.093,4.093,0,0,1,19.828,2.172Zm-12,10.067A6,6,0,0,1,8.757,5l.707-.707a1,1,0,0,1,1.414,0l7.072,7.071a1,1,0,0,1,0,1.414l-.707.707A5.98,5.98,0,0,1,13,15.239a6.111,6.111,0,0,1-1-.1V21h8a1,1,0,0,1,0,2H4a1,1,0,0,1,0-2H6V15A3,3,0,0,1,7.829,12.239Zm2.342-.168a4.007,4.007,0,0,0,5.658,0L10.171,6.414A4.006,4.006,0,0,0,10.171,12.071ZM8,21h2V15a1,1,0,0,0-2,0Z"/></svg>
